!!!COM: Charles Ives
!!!OTL: [T238_Ive-w41p4-6m1-9]
**kern	**kern	**dynam	**kern	**kern	**dynam	**kern	**dynam	**kern	**dynam	**kern	**dynam
*part6	*part6	*part6	*part5	*part4	*part4	*part3	*part3	*part2	*part2	*part1	*part1
*staff7	*staff6	*	*staff5	*staff4	*	*staff3	*	*staff2	*	*staff1	*
*I"Piano	*	*	*I"Tubular Bells	*I"Trombone	*	*I"Trumpet in Bb	*	*I"Clarinet in Bb	*	*I"Flute	*
*I'Pno.	*	*	*I'Tub. B.	*I'Tbn.	*	*I'Tpt.	*	*I'Cl.	*	*I'Fl.	*
!!pagebreak:original
*clefF4	*clefG2	*	*clefG2	*clefF4	*	*clefG2	*	*clefG2	*	*clefG2	*
*	*	*	*	*	*	*ITrd1c2	*	*ITrd1c2	*	*	*
*k[]	*k[]	*	*k[]	*k[]	*	*k[]	*	*k[]	*	*k[]	*
*C:	*C:	*	*C:	*C:	*	*C:	*	*C:	*	*C:	*
*M4/4	*M4/4	*	*M4/4	*M4/4	*	*M4/4	*	*M4/4	*	*M4/4	*
=1	=1	=1	=1	=1	=1	=1	=1	=1	=1	=1	=1
*^	*	*	*	*	*	*	*	*	*	*	*
!	!	!LO:TX:t=[quarter]=108	!	!	!	!	!	!	!	!	!LO:TX:t=[quarter]=108	!
!	!	!LO:TX:t=[quarter]=108	!	!LO:TX:b:t=[f]	!	!	!	!	!	!	!LO:TX:a:Bi:t=(Flute plays 2nd time only)	!
1ryy	3%2EEE-X 3%2EE-X	1r	f f	3%2e-X	5D	f	8.bL	f	16ccLL	f	8r	.
.	.	.	.	.	.	.	.	.	16b	.	.	.
.	.	.	.	.	.	.	.	.	16f#X	.	4ff	f
.	.	.	.	.	.	.	16bJk	.	16aJJ	.	.	.
.	.	.	.	.	5E-X	.	.	.	.	.	.	.
.	.	.	.	.	.	.	4ee	.	16bLL	.	.	.
.	.	.	.	.	.	.	.	.	16b-	.	.	.
.	.	.	.	.	.	.	.	.	16f	.	8bb	.
.	.	.	.	.	10F#XL	.	.	.	.	.	.	.
.	.	.	.	.	.	.	.	.	[16ccJJ	.	.	.
.	.	.	.	.	10GJ	.	4dd	.	8ccL]	.	12ddd#XL	.
.	.	.	.	.	.	.	.	.	.	.	12ccc#X	.
.	.	.	.	.	5c#X	.	.	.	.	.	.	.
.	.	.	.	.	.	.	.	.	16bXL	.	.	.
.	3DDD 3DD	.	.	3d	.	.	.	.	.	.	12ggJ	.
.	.	.	.	.	.	.	.	.	16f#XJJ	.	.	.
.	.	.	.	.	.	.	8.bL	.	4a	.	12dddnL	.
.	.	.	.	.	10.CnL	.	.	.	.	.	.	.
.	.	.	.	.	.	.	.	.	.	.	12cccn	.
.	.	.	.	.	.	.	.	.	.	.	12ggg#XJ	.
.	.	.	.	.	.	.	16cJk	.	.	.	.	.
.	.	.	.	.	20AJk	.	.	.	.	.	.	.
=2	=2	=2	=2	=2	=2	=2	=2	=2	=2	=2	=2	=2
1ryy	3EEEn 3EEn	1r	.	3en	5B-X	.	4f	.	16aa-XLL	.	6aaa	.
.	.	.	.	.	.	.	.	.	16ggJ	.	.	.
.	.	.	.	.	.	.	.	.	8f#XJ	.	.	.
.	.	.	.	.	.	.	.	.	.	.	[12ggn	.
.	.	.	.	.	5A-X	.	.	.	.	.	.	.
.	.	.	.	.	.	.	8gL	.	16gLL	.	6gg]	.
.	.	.	.	.	.	.	.	.	16gg-X	.	.	.
.	3%2FFF#X 3%2FF#X	.	.	3%2f#X	.	.	.	.	.	.	.	.
.	.	.	.	.	.	.	8aJ	.	16ff	.	.	.
.	.	.	.	.	10.eL	.	.	.	.	.	.	.
.	.	.	.	.	.	.	.	.	.	.	12bb-X	.
.	.	.	.	.	.	.	.	.	16eJJ	.	.	.
.	.	.	.	.	.	.	4c#X	.	16e-KL	.	12ddL	.
.	.	.	.	.	20eJk	.	.	.	.	.	.	.
.	.	.	.	.	.	.	.	.	8d	.	.	.
.	.	.	.	.	.	.	.	.	.	.	12ee-X	.
.	.	.	.	.	5Fn	.	.	.	.	.	.	.
.	.	.	.	.	.	.	.	.	.	.	[12ddJ	.
.	.	.	.	.	.	.	.	.	[16dd-XJk	.	.	.
.	.	.	.	.	.	.	4cc	.	16dd-LL]	.	12ddL]	.
.	.	.	.	.	[5G	.	.	.	.	.	.	.
.	.	.	.	.	.	.	.	.	16c	.	.	.
.	.	.	.	.	.	.	.	.	.	.	12aa	.
.	.	.	.	.	.	.	.	.	16eX	.	.	.
.	.	.	.	.	.	.	.	.	.	.	12aa-XJ	.
.	.	.	.	.	.	.	.	.	[16gJJ	.	.	.
=3	=3	=3	=3	=3	=3	=3	=3	=3	=3	=3	=3	=3
1ryy	3FFFn 3FFn	1r	.	3fn	5G]	.	2f#X	.	16gLL]	.	4.ggn	.
.	.	.	.	.	.	.	.	.	16cc	.	.	.
.	.	.	.	.	.	.	.	.	16b	.	.	.
.	.	.	.	.	.	.	.	.	16f#XJJ	.	.	.
.	.	.	.	.	5%2a-X	.	.	.	.	.	.	.
.	.	.	.	.	.	.	.	.	16gLL	.	.	.
.	.	.	.	.	.	.	.	.	16dd-X	.	.	.
.	3DDD-X 3DD-X	.	.	3d-X	.	.	.	.	.	.	.	.
.	.	.	.	.	.	.	.	.	16b-	.	8ff	.
.	.	.	.	.	.	.	.	.	16fJJ	.	.	.
.	.	.	.	.	.	.	2g	.	8.ccL	.	4.aan	.
.	.	.	.	.	10.gL	.	.	.	.	.	.	.
.	3CCCn 3CCn	.	.	3cn	.	.	.	.	.	.	.	.
.	.	.	.	.	.	.	.	.	16bXJk	.	.	.
.	.	.	.	.	20g-XJk	.	.	.	16f#XKL	.	.	.
.	.	.	.	.	5An	.	.	.	.	.	.	.
.	.	.	.	.	.	.	.	.	8.aJ	.	.	.
.	.	.	.	.	.	.	.	.	.	.	8gg-X	.
!!pagebreak:original
=4	=4	=4	=4	=4	=4	=4	=4	=4	=4	=4	=4	=4
1ryy	3%2GGG#X 3%2GG#X	1r	.	3%2g#X	5B	.	4a#X	.	16ccLL	.	12aaL	.
.	.	.	.	.	.	.	.	.	16b	.	.	.
.	.	.	.	.	.	.	.	.	.	.	12gg	.
.	.	.	.	.	.	.	.	.	16f#X	.	.	.
.	.	.	.	.	.	.	.	.	.	.	[12ddJ	.
.	.	.	.	.	.	.	.	.	16gJJ	.	.	.
.	.	.	.	.	5A	.	.	.	.	.	.	.
.	.	.	.	.	.	.	4b	.	16bLL	.	12ddL]	.
.	.	.	.	.	.	.	.	.	16b-	.	.	.
.	.	.	.	.	.	.	.	.	.	.	12e	.
.	.	.	.	.	.	.	.	.	16f	.	.	.
.	.	.	.	.	10GL	.	.	.	.	.	.	.
.	.	.	.	.	.	.	.	.	.	.	[12fJ	.
.	.	.	.	.	.	.	.	.	[16ccJJ	.	.	.
.	.	.	.	.	10F#XJ	.	12eL	.	16ccKL]	.	8fL]	.
.	.	.	.	.	.	.	.	.	8bX	.	.	.
.	.	.	.	.	.	.	12d	.	.	.	.	.
.	.	.	.	.	5G#X	.	.	.	.	.	.	.
.	.	.	.	.	.	.	.	.	.	.	8ccJ	.
.	[3BBB [3BB	.	.	[3b	.	.	[12d-XJ	.	.	.	.	.
.	.	.	.	.	.	.	.	.	16f#XJk	.	.	.
.	.	.	.	.	.	.	12d-L]	.	8.gL	.	8dd#XL	.
.	.	.	.	.	5C	.	.	.	.	.	.	.
.	.	.	.	.	.	.	12a-X	.	.	.	.	.
.	.	.	.	.	.	.	.	.	.	.	[8ddnJ	.
.	.	.	.	.	.	.	12gJ	.	.	.	.	.
.	.	.	.	.	.	.	.	.	16dd-XJk	.	.	.
=5	=5	=5	=5	=5	=5	=5	=5	=5	=5	=5	=5	=5
1ryy	3BBB] 3BB]	2r	.	3b]	10DL	.	8ggL	.	16ccLL	.	4dd]	.
.	.	.	.	.	.	.	.	.	16b	.	.	.
.	.	.	.	.	10EJ	.	.	.	.	.	.	.
.	.	.	.	.	.	.	8ff#XJ	.	16f#X	.	.	.
.	.	.	.	.	.	.	.	.	16gJJ	.	.	.
.	.	.	.	.	5GG#X	.	.	.	.	.	.	.
.	.	.	.	.	.	.	6f	.	16bLL	.	8cL	.
.	.	.	.	.	.	.	.	.	16b-	.	.	.
.	3GGGn 3GGn	.	.	3gn	.	.	.	.	.	.	.	.
.	.	.	.	.	.	.	.	.	16f	.	8c#XJ	.
.	.	.	.	.	5F	.	.	.	.	.	.	.
.	.	.	.	.	.	.	[12cc	.	.	.	.	.
.	.	.	.	.	.	.	.	.	[16ccJJ	.	.	.
.	.	4r	.	.	.	.	12cc]	.	16ccLL]	.	[4d	.
.	.	.	.	.	.	.	.	.	16bX	.	.	.
.	.	.	.	.	.	.	6cc#X	.	.	.	.	.
.	.	.	.	.	5Gn	.	.	.	.	.	.	.
.	.	.	.	.	.	.	.	.	16f#X	.	.	.
.	3FFF#X 3FF#X	.	.	3f#X	.	.	.	.	.	.	.	.
.	.	.	.	.	.	.	.	.	16gJJ	.	.	.
*	*	*clefF4	*	*	*	*	*	*	*	*	*	*
.	.	[4E-X^^ [4d	f f	.	.	.	8eeL	.	16ee-LL	.	12d]	.
.	.	.	.	.	5BBn	.	.	.	.	.	.	.
.	.	.	.	.	.	.	.	.	16ddJ	.	.	.
.	.	.	.	.	.	.	.	.	.	.	6d#X	.
.	.	.	.	.	.	.	8ddJ	.	8dd-XJ	.	.	.
*v	*v	*	*	*	*	*	*	*	*	*	*	*
=6	=6	=6	=6	=6	=6	=6	=6	=6	=6	=6	=6
*M3/4	*M3/4	*	*M3/4	*M3/4	*	*M3/4	*	*M3/4	*	*M3/4	*
4AAA 4AA	8.E-L] 8.d]	.	4a	20%3BB-X	.	8B-L	.	64%3ccLL	.	12aaL	.
.	.	.	.	.	.	.	.	64%3b	.	.	.
.	.	.	.	.	.	.	.	.	.	12gg#X	.
.	.	.	.	.	.	.	.	64%3f#X	.	.	.
.	.	.	.	.	.	8cJ	.	.	.	.	.
.	.	.	.	.	.	.	.	64%3gJJ	.	.	.
.	.	.	.	20%3D	.	.	.	.	.	.	.
.	.	.	.	.	.	.	.	.	.	[12gnJ	.
.	[16D-X^^Jk [16c	.	.	.	.	.	.	64%3bLL	.	.	.
.	.	.	.	.	.	.	.	64%3b-	.	.	.
4DDDn 4DDn	8D-L] 8c]	.	4dn	.	.	6c#X	.	.	.	12gL]	.
.	.	.	.	.	.	.	.	64%3f	.	.	.
.	.	.	.	20%3C#X	.	.	.	.	.	.	.
.	.	.	.	.	.	.	.	64%3ccJJ	.	.	.
.	.	.	.	.	.	.	.	.	.	12dd	.
.	[8E-X^^J [8en	.	.	.	.	.	.	64%3bXLL	.	.	.
.	.	.	.	.	.	[12d	.	.	.	12dd#XJ	.
.	.	.	.	.	.	.	.	64%3f#X	.	.	.
.	.	.	.	20%3.F	.	.	.	.	.	.	.
.	.	.	.	.	.	.	.	64%3g	.	.	.
4DDD-X 4DD-X	16E-KL] 16e]	.	4d-X	.	.	8dL]	.	.	.	6ff#X	.
.	.	.	.	.	.	.	.	64%3bJJ	.	.	.
.	8.E-X^^J 8.dn	.	.	.	.	.	.	64%3b-LL	.	.	.
.	.	.	.	.	.	.	.	64%3f	.	.	.
.	.	.	.	.	.	8fJ	.	.	.	.	.
.	.	.	.	.	.	.	.	64%3cc	.	.	.
.	.	.	.	.	.	.	.	.	.	[12ee	.
.	.	.	.	40%3E	.	.	.	.	.	.	.
.	.	.	.	.	.	.	.	64%3bXJJ	.	.	.
!!pagebreak:original
=7	=7	=7	=7	=7	=7	=7	=7	=7	=7	=7	=7
*^	*	*	*	*	*	*	*	*	*	*	*
2.ryy	4EE 4E	8.F#XL 8.fn	.	4ee	20%3G#X	.	8.gL	.	64%3f#XLL	.	6ee]	.
.	.	.	.	.	.	.	.	.	64%3g	.	.	.
.	.	.	.	.	.	.	.	.	64%3b	.	.	.
.	.	.	.	.	.	.	.	.	64%3b-JJ	.	.	.
.	.	.	.	.	20%3Gn	.	.	.	.	.	.	.
.	.	.	.	.	.	.	.	.	.	.	12fff	.
.	.	([16En^^Jk 16e-X	.	.	.	.	[16fJk	.	64%3fLL	.	.	.
.	.	.	.	.	.	.	.	.	64%3cc	.	.	.
.	4FF 4F	8EL] 8d)	.	4ff	.	.	8fL]	.	.	.	4fff	.
.	.	.	.	.	.	.	.	.	64%3bX	.	.	.
.	.	.	.	.	20%3.Bn	.	.	.	.	.	.	.
.	.	.	.	.	.	.	.	.	64%3f#XJJ	.	.	.
.	.	[8F#X^^J [8g	.	.	.	.	[8a-XJ	.	64%3gLL	.	.	.
.	.	.	.	.	.	.	.	.	64%3b	.	.	.
.	.	.	.	.	.	.	.	.	64%3b-	.	.	.
.	4GGG 4GG	16F#KL] 16g]	.	4g	.	.	16a-KL]	.	.	.	4bb-X	.
.	.	.	.	.	.	.	.	.	64%3fJJ	.	.	.
.	.	.	.	.	40%3B-X	.	.	.	.	.	.	.
.	.	8.F#X^^J 8.fn	.	.	.	.	8.gJ	.	64%3ccLL	.	.	.
.	.	.	.	.	[20%3B-X	.	.	.	.	.	.	.
.	.	.	.	.	.	.	.	.	64%3bX	.	.	.
.	.	.	.	.	.	.	.	.	64%3f#X	.	.	.
.	.	.	.	.	.	.	.	.	64%3gJJ	.	.	.
*	*	*clefG2	*	*	*	*	*	*	*	*	*	*
*v	*v	*	*	*	*	*	*	*	*	*	*	*
=8	=8	=8	=8	=8	=8	=8	=8	=8	=8	=8	=8
*M4/4	*M4/4	*	*M4/4	*M4/4	*	*M4/4	*	*M4/4	*	*M4/4	*
*^	*	*	*	*	*	*	*	*	*	*	*
16ryy@	3GGG#X 3GG#X	16r	.	3g#X	5B-]	.	16r	.	16aa-XLL	.	3ee-X	.
16ryy@	.	8.Gn 8.f#X	.	.	.	.	8.a-X	.	16gg	.	.	.
16ryy@	.	.	.	.	.	.	.	.	16f#X	.	.	.
80ryy@	.	.	.	.	.	.	.	.	16gJJ	.	.	.
20ryy@	.	.	.	.	5AA	.	.	.	.	.	.	.
16ryy@	.	8.GL 8.a-X	.	.	.	.	8.g-XL	.	16gg-XLL	.	.	.
48ryy@	.	.	.	.	.	.	.	.	16ff	.	.	.
24ryy@	3BBBB 3BBB	.	.	3B	.	.	.	.	.	.	6dd	.
40ryy@	.	.	.	.	.	.	.	.	16e	.	.	.
40.ryy@	.	.	.	.	10.E-XL	.	.	.	.	.	.	.
16ryy@	.	[16G#XJk [16gn	.	.	.	.	[16aJk	.	16e-JJ	.	.	.
20ryy@	.	8G#L] 8g]	.	.	.	.	8aL]	.	16dLL	.	4.cc	.
80ryy@	.	.	.	.	20D-XJk	.	.	.	.	.	.	.
40.ryy@	.	.	.	.	.	.	.	.	16dd-X	.	.	.
40ryy@	.	.	.	.	10.cL	.	.	.	.	.	.	.
24ryy@	.	[8G#XJ [8an	.	.	.	.	[8b-J	.	16c	.	.	.
48ryy@	3GGGn 3GGn	.	.	3gn	.	.	.	.	.	.	.	.
16ryy@	.	.	.	.	.	.	.	.	16bJJ	.	.	.
16c#XKL	.	16G#KL] 16a]	.	.	[20Bn^^Jk	.	16b-KL]	.	16f#XLL	.	.	.
.	.	.	.	.	5B_	.	.	.	.	.	.	.
8.F#XJ	.	8.dnJ	.	.	.	.	8.e-J	.	16g	.	.	.
.	.	.	.	.	.	.	.	.	16b	.	[8ff#X	.
.	.	.	.	.	.	.	.	.	16b-JJ	.	.	.
=9	=9	=9	=9	=9	=9	=9	=9	=9	=9	=9	=9	=9
12FL 12c#X	3AAAA#X 3AAA#X	8.dL	.	3A#X	10.BL]	.	12fL	.	16fLL	.	8.ff#L]	.
.	.	.	.	.	.	.	.	.	16cc	.	.	.
12En 12cn	.	.	.	.	.	.	12f#X	.	.	.	.	.
.	.	.	.	.	.	.	.	.	16bX	.	.	.
.	.	.	.	.	[20FnJk	.	.	.	.	.	.	.
12BBnJ 12Bn	.	.	.	.	.	.	12gJ	.	.	.	.	.
.	.	[16b-XJk	.	.	.	.	.	.	16f#XJJ	.	16ff#XJk	.
.	.	.	.	.	10FL]	.	.	.	.	.	.	.
12FF#XL 12F#X	.	8b-L]	.	.	.	.	3ff#X	.	16gLL	.	3ccc#X	.
.	.	.	.	.	[10B-XJ	.	.	.	.	.	.	.
.	.	.	.	.	.	.	.	.	16b	.	.	.
12GG 12G	3CCCn 3CCn	.	.	3cn	.	.	.	.	.	.	.	.
.	.	[8AJ	.	.	.	.	.	.	16b-	.	.	.
.	.	.	.	.	5B-]	.	.	.	.	.	.	.
[12CC#XJ [12C#X	.	.	.	.	.	.	.	.	.	.	.	.
.	.	.	.	.	.	.	.	.	16fJJ	.	.	.
4CC#] 4C#]	.	4A]	.	.	.	.	.	.	16ccLL	.	.	.
.	.	.	.	.	.	.	.	.	16bX	.	.	.
.	.	.	.	.	.	.	[6cc#X	.	.	.	[6gg#X	.
.	.	.	.	.	5.D-X	.	.	.	.	.	.	.
.	.	.	.	.	.	.	.	.	16f#X	.	.	.
.	3EEEn 3EEn	.	.	3en	.	.	.	.	.	.	.	.
.	.	.	.	.	.	.	.	.	16gJJ	.	.	.
4EE-X 4En	.	4r	.	.	.	.	8cc#L]	.	16bXLL	.	8gg#L]	.
.	.	.	.	.	.	.	.	.	16b-	.	.	.
.	.	.	.	.	.	.	8aJ	.	16f	.	8eenJ	.
.	.	.	.	.	20E-XLL	.	.	.	.	.	.	.
.	.	.	.	.	.	.	.	.	16ccJJ	.	.	.
.	.	.	.	.	20DnJJ	.	.	.	.	.	.	.
*v	*v	*	*	*	*	*	*	*	*	*	*	*
=	=	=	=	=	=	=	=	=	=	=	=
*-	*-	*-	*-	*-	*-	*-	*-	*-	*-	*-	*-
!!!system-decoration: [(s1,s2,s3,s4)]s5[({(s6,s7)})]
